src/assets/svg/expand-side.svg

<svg width="30" height="30" viewBox="0 0 30 30" fill="none" xmlns="http://www.w3.org/2000/svg">
<rect opacity="0.6" width="30" height="30" rx="3" transform="matrix(-1.31134e-07 1 1 1.31134e-07 0 0)" fill="#252527"/>
<g opacity="0.4">
<path d="M15.1211 19.1348C15.4609 19.4746 16.0118 19.4745 16.3516 19.1348L20.9863 14.5L16.3516 9.86523C16.0118 9.52545 15.4609 9.52545 15.1211 9.86523C14.7813 10.205 14.7813 10.7559 15.1211 11.0957L18.5254 14.5L15.1211 17.9043C14.7813 18.2441 14.7813 18.795 15.1211 19.1348Z" fill="white"/>
<path d="M9.49023 19.1348C9.83002 19.4746 10.3809 19.4745 10.7207 19.1348L15.3555 14.5L10.7207 9.86523C10.3809 9.52545 9.83002 9.52545 9.49023 9.86523C9.15045 10.205 9.15045 10.7559 9.49023 11.0957L12.8945 14.5L9.49023 17.9043C9.15045 18.2441 9.15045 18.795 9.49023 19.1348Z" fill="white"/>
</g>
</svg>

<!-- Generated by IcoMoon.io -->
<svg version="1.1" xmlns="http://www.w3.org/2000/svg" width="30" height="30" viewBox="0 0 30 30">
<title>expand-side</title>
<path fill="#252527" opacity="0.6" d="M0 3v24c0 1.657 1.343 3 3 3h24c1.657 0 3-1.343 3-3v-24c0-1.657-1.343-3-3-3h-24c-1.657 0-3 1.343-3 3z"></path>
<path fill="#fff" opacity="0.4" d="M15.121 19.135c0.34 0.34 0.891 0.34 1.23 0l4.635-4.635-4.635-4.635c-0.34-0.34-0.891-0.34-1.23 0s-0.34 0.891 0 1.23l3.404 3.404-3.404 3.404c-0.34 0.34-0.34 0.891 0 1.23z"></path>
<path fill="#fff" opacity="0.4" d="M9.49 19.135c0.34 0.34 0.891 0.34 1.23 0l4.635-4.635-4.635-4.635c-0.34-0.34-0.891-0.34-1.23 0s-0.34 0.891 0 1.23l3.404 3.404-3.404 3.404c-0.34 0.34-0.34 0.891 0 1.23z"></path>
</svg>
